X: 28683
T: Mutton Island
R: reel
M: 4/4
K: Gmajor
|:~e2eg edBA|~G2GA BGDC|B,DGE CDGA|BAGB ABcd|
efgf edBA|~G2GA BGDC|A,B,GE CDGc|BGAF [1GA B/c/d:|2 GFGA||
|:BG~G2 (3(EFG) DB,|G,B,DG ~B2AB ~c2AF|GFED ^CEAG EFdc|
BG~G2 (3(EFG) DB,|G,B,DG BGAB|cBAG FDEF|GBAF [1GBdc:|2 GAGF||
|:~E2EF GE~E2|Ed^cd BAFE|~D2DE FDFA|dD^cA BAFD|
EB,EF GE~E2|Ed^cd BAFE|DEFA cAFA|GBAF [1GAGF:|2 GA B/c/d||

